X: 4
T: Abbey, The
Z: Erik-Fiddler
S: https://thesession.org/tunes/477#setting13370
R: reel
M: 4/4
L: 1/8
K: Ador
|:B|A2 AB A2 GE|A/B/A GA BddB|(3A/A/A/A AB AGEG|DEGA Bdd:|
g|eg (3g/g/g/g a2 ba|gabg ageg|degb a2 ga|.b/a/g af ged2|
eg (3g/g/g/g ag (3g/g/g/g|agbg ageg|degb a2 ga|.b/a/g af gedB||

